polaris-icons/icons/new-icons/MicrophoneMajor.svg

<svg width="20" height="20" viewBox="0 0 20 20" fill="none" xmlns="http://www.w3.org/2000/svg">
<path fill-rule="evenodd" clip-rule="evenodd" d="M10 3C8.20507 3 6.75 4.45507 6.75 6.25V8.25C6.75 10.0449 8.20507 11.5 10 11.5C11.7949 11.5 13.25 10.0449 13.25 8.25V6.25C13.25 4.45507 11.7949 3 10 3ZM11.75 8.25C11.75 9.2165 10.9665 10 10 10C9.0335 10 8.25 9.2165 8.25 8.25V6.25C8.25 5.2835 9.0335 4.5 10 4.5C10.9665 4.5 11.75 5.2835 11.75 6.25V8.25Z" fill="#4A4A4A"/>
<path d="M5.5 8C5.5 7.58579 5.16421 7.25 4.75 7.25C4.33579 7.25 4 7.58579 4 8V8.25C4 11.3097 6.29027 13.8345 9.25 14.2036V15.75H8C7.58579 15.75 7.25 16.0858 7.25 16.5C7.25 16.9142 7.58579 17.25 8 17.25H12C12.4142 17.25 12.75 16.9142 12.75 16.5C12.75 16.0858 12.4142 15.75 12 15.75H10.75V14.2036C13.7097 13.8345 16 11.3097 16 8.25V8C16 7.58579 15.6642 7.25 15.25 7.25C14.8358 7.25 14.5 7.58579 14.5 8V8.25C14.5 10.7353 12.4853 12.75 10 12.75C7.51472 12.75 5.5 10.7353 5.5 8.25V8Z" fill="#4A4A4A"/>
</svg>

<svg viewBox="0 0 20 20" xmlns="http://www.w3.org/2000/svg"><path fill-rule="evenodd" d="M10 3a3.25 3.25 0 0 0-3.25 3.25v2a3.25 3.25 0 0 0 6.5 0v-2a3.25 3.25 0 0 0-3.25-3.25Zm1.75 5.25a1.75 1.75 0 1 1-3.5 0v-2a1.75 1.75 0 1 1 3.5 0v2Z" fill="#5C5F62"/><path d="M5.5 8a.75.75 0 0 0-1.5 0v.25c0 3.06 2.29 5.585 5.25 5.954v1.546h-1.25a.75.75 0 0 0 0 1.5h4a.75.75 0 0 0 0-1.5h-1.25v-1.546a6.001 6.001 0 0 0 5.25-5.954v-.25a.75.75 0 0 0-1.5 0v.25a4.5 4.5 0 1 1-9 0v-.25Z" fill="#5C5F62"/></svg>
